X: 9262
T: Dan Sullivan's Shamrock Swing Band
R: polka
M: 2/4
K: Emixolydian
B,|:E>F GA|BA Be|dB AB/A/|GE DB,|
E>F GA|BA Be|dB AB/A/|1 GE EB,:|2 GE E2||
ef/e/ dB|AF dc/d/|eE EF/G/|AF DB,|
ef/e/ dB|AF dc/d/|eE FD|E2 E2|
ef/e/ dB|AF dc/d/|eE EF/G/|AF DB,|
E>F GA|BA Be|dB AB/A/|GE E2||

